X:1
T:Air
T:dalla Terza suite
T:J. S. BACH
T:MuseScore 2013
Z:MuseScore 2013
L:1/8
Q:1/8=80
M:4/4
K:D
V:1 tenor nm="Violoncello"
V:1
 !3!F8- | F!3!B/G/ (!4!E/D/!1!C/D/) v!3!C2{uB,} !0!A,2 | %2
 A4- A/(!1!F/!2!=C/B,/) (!2!E/^D/)(!0!A/!4!G/) | G4- G/(uE/B,/A,/) (D/C/)(!2!G/F/) | %4
 !1!F3 (u!2!^G/!0!A/) v!1!D(D/4E/4F/) (F/E/)(E/D/) | (!3!C/B,/)(uB,/4C/4D/) D(C/B,/) !0!A,4 :| %6
 !3!C2- C/(uD/4C/4B,/4C/4A,/) !3!A3"_IIda" u!2!=C | %7
"^x" (!1!B,!3!B-) B/(!2!!0!A/!4!G/F/) G2- G/4F/4E/4!4!D/4C/!1!B,/ | %8
 (!1!^A,/B,/)(!1!C- C/D/)(!1!E- E/F/) (G2 F) | (!3!E/D/)(!3!C/B,/) (!1!C/D/4E/4)uD vB,4 | %10
 v!1!D2- D/(uF/E/D/) !3!B3 (A/^G/) |{/F} (!3!E/!0!A/)uA, (B,3/2C/4D/4) (C>B,) A,2 | %12
 (u!1!D3 F/E/) E3 (!2!G/F/) | !1!F3 (A/G/) !2!G4 | (u!0!A,2- A,/C/E/G/) (G/E/!1!F- F)(F/G/4A/4) | %15
"_IIda" !3!D2- D/(!1!F/!3!A/!3!=c/) B3 !2!D | %16
 v!1!C/u!4!E/ v!4!G2 u!3!B, (!1!A,!1!E/F/4G/4- G/)uFE/ | !4!D/4C/4(B,C/) (DC/D/) D4 |] %18

